src/lib/packages/icons/src/assets/filled/arrow-left-from-line.svg

<svg width="24" height="24" viewBox="0 0 24 24" fill="none" xmlns="http://www.w3.org/2000/svg">
<path d="M18.0001 12C18.0001 12.552 17.5531 13 17.0001 13H5.41413L8.7071 16.293C9.0981 16.684 9.0981 17.316 8.7071 17.707C8.5121 17.902 8.25607 18 8.00007 18C7.74407 18 7.48804 17.902 7.29304 17.707L2.29401 12.708C2.20101 12.615 2.12797 12.5051 2.07697 12.3821C1.97597 12.1381 1.97597 11.8619 2.07697 11.6179C2.12797 11.4949 2.20101 11.385 2.29401 11.292L7.29304 6.29297C7.68403 5.90197 8.3161 5.90197 8.7071 6.29297C9.0981 6.68397 9.0981 7.31603 8.7071 7.70703L5.41413 11H17.0001C17.5531 11 18.0001 11.448 18.0001 12ZM21.0001 5C20.4471 5 20.0001 5.448 20.0001 6V18C20.0001 18.552 20.4471 19 21.0001 19C21.5531 19 22.0001 18.552 22.0001 18V6C22.0001 5.448 21.5531 5 21.0001 5Z" fill="currentColor"/>
</svg>

<svg xmlns="http://www.w3.org/2000/svg" width="24" height="24" fill="none"><path fill="currentColor" d="M18 12a1 1 0 0 1-1 1H5.414l3.293 3.293a.999.999 0 1 1-1.414 1.414l-4.999-4.999a1 1 0 0 1 0-1.416l4.999-4.999a.999.999 0 1 1 1.414 1.414L5.414 11H17a1 1 0 0 1 1 1Zm3-7a1 1 0 0 0-1 1v12a1 1 0 1 0 2 0V6a1 1 0 0 0-1-1Z"/></svg>
